lib/logo_tmp/nrk-logo-nrk-p3-urort-title-below-on-dark.svg

<svg width="89" height="35" viewBox="0 0 89 35" fill="none" xmlns="http://www.w3.org/2000/svg">
<rect x="3.33325" y="3.33337" width="28" height="28" fill="black"/>
<path fill-rule="evenodd" clip-rule="evenodd" d="M0 0H34.6667V34.6667H0V0ZM11.1955 15.4071H7.99996V27.0174H11.1955V15.4071ZM15.2472 15.4071H11.6587C11.6587 15.4071 13.6975 18.7495 13.7205 18.7915C13.8767 19.0566 13.8863 19.2192 13.7337 19.4749L11.6587 22.872H15.2472C15.2472 22.872 16.9776 20.0461 17.2142 19.6538C17.449 19.2614 17.4384 19.0174 17.2047 18.6146C16.9659 18.2083 16.9505 18.1832 15.5463 15.8945L15.5459 15.894L15.2472 15.4071ZM25.297 15.4071C25.297 15.4071 26.3649 17.1253 26.4856 17.3306C26.72 17.7348 26.7306 17.9793 26.4949 18.3731C26.3304 18.646 24.9186 20.9823 24.9186 20.9823C25.1774 21.4047 25.5222 21.9572 25.8249 22.4422L25.8252 22.4426C26.1359 22.9405 26.4022 23.3672 26.4855 23.5089C26.7199 23.913 26.7305 24.1576 26.4949 24.5513C26.4508 24.6245 26.3618 24.774 26.2449 24.9701L26.242 24.975L26.2395 24.9792L26.2387 24.9806C25.9195 25.5165 25.3984 26.3913 25.0151 27.0174H21.7364L23.5316 24.0708L21.6695 20.9498L23.3393 18.2173H19.2944L17.6166 15.4071H25.297ZM19.0973 21.3691C18.592 22.1936 17.7466 23.5751 17.5883 23.8446C17.3626 24.2338 17.3524 24.4694 17.5792 24.8485C17.7376 25.1114 18.5897 26.5039 19.0974 27.3333C19.6052 26.5038 20.4572 25.1113 20.6156 24.8485C20.8425 24.4692 20.8323 24.2338 20.6065 23.8446C20.4481 23.5751 19.6026 22.1936 19.0973 21.3691ZM7.99996 7.15612V13.6874H10.1435V7.15612H7.99996ZM14.2927 13.6874L13.0599 8.19562C13.0007 7.9049 12.8431 7.64345 12.6139 7.45512C12.3849 7.25854 12.0922 7.15221 11.7905 7.15612H10.4747L11.9467 13.6874H14.2927ZM14.6147 7.15612V13.6874H16.7583V7.15612H14.6147ZM17.7197 9.46508C17.919 9.58169 18.1462 9.64211 18.3772 9.63989C18.3771 9.63989 18.3771 9.63988 18.377 9.63988H18.3773C18.3773 9.63988 18.3772 9.63989 18.3772 9.63989C18.6069 9.64258 18.8329 9.5821 19.0305 9.46508C19.2253 9.3504 19.3869 9.18716 19.4997 8.99132C19.6164 8.7919 19.6768 8.56464 19.6747 8.33362C19.6772 8.10401 19.6167 7.87811 19.4997 7.68049C19.3857 7.48678 19.2242 7.32531 19.0305 7.21133C18.8328 7.09453 18.6069 7.03406 18.3773 7.03653C18.1464 7.03443 17.9191 7.09484 17.7197 7.21133C17.524 7.32432 17.3608 7.48593 17.2459 7.68049C17.1288 7.87806 17.0683 8.104 17.0709 8.33362C17.0686 8.56466 17.1291 8.79195 17.2459 8.99132C17.3596 9.18802 17.523 9.3514 17.7197 9.46508ZM20.0058 7.15612V13.6874H22.1496V7.15612H20.0058ZM25.0014 10.9507C24.9155 10.8068 24.8695 10.7317 24.8634 10.7253H24.8631C24.7973 10.6372 24.7589 10.5316 24.7529 10.4218C24.7567 10.3172 24.7885 10.2155 24.8449 10.1273L26.6666 7.15597H24.3114C24.1643 7.39535 24.0309 7.61306 23.9111 7.8091C23.7919 8.00535 23.6647 8.21541 23.5296 8.43925C23.3945 8.6631 23.261 8.88234 23.1291 9.09699C22.9972 9.31163 22.8822 9.49713 22.7841 9.65351C22.686 9.80989 22.6185 9.91877 22.5817 9.98009C22.4945 10.1117 22.4438 10.2641 22.4346 10.4218C22.4461 10.586 22.4999 10.7445 22.5909 10.8817C22.6276 10.937 22.6936 11.0444 22.7888 11.2037C22.8837 11.363 22.9971 11.5484 23.1291 11.7602C23.2611 11.972 23.3946 12.1897 23.5296 12.4134C23.6643 12.6372 23.7915 12.8457 23.9111 13.0389C24.0307 13.2321 24.1641 13.4483 24.3114 13.6874H26.6666C26.4946 13.4054 26.3413 13.1525 26.2066 12.9285C26.0715 12.7046 25.9273 12.4669 25.7741 12.2156C25.6208 11.9642 25.4752 11.7266 25.3372 11.5027C25.1993 11.2786 25.0874 11.0946 25.0014 10.9507Z" fill="#FFE100"/>
<path d="M52.0531 18.7963C52.0615 19.3845 51.9919 19.9712 51.8461 20.541C51.7298 21.0043 51.5108 21.4355 51.2054 21.8028C50.8993 22.1493 50.5088 22.4108 50.0718 22.5618C49.5292 22.7447 48.9587 22.8314 48.3862 22.818C47.7191 22.8332 47.0557 22.7159 46.4342 22.473C45.8881 22.2486 45.4405 21.8359 45.1725 21.3099C44.8523 20.616 44.7035 19.8554 44.7388 19.092V10.3392H42.6688V19.4285C42.6466 20.2462 42.7978 21.0593 43.1127 21.8143C43.3814 22.4369 43.8015 22.9825 44.3349 23.4013C44.8718 23.8109 45.4851 24.1092 46.1388 24.2785C46.8464 24.4654 47.5755 24.5581 48.3074 24.5542C49.4068 24.5971 50.499 24.3597 51.4814 23.8642C52.284 23.4305 52.9291 22.7543 53.3247 21.9322C53.7436 21.0178 53.9491 20.0201 53.9256 19.0145V10.3402H52.0528L52.0531 18.7963Z" fill="white"/>
<path d="M60.9837 14.2131C60.6149 14.3117 60.2627 14.4645 59.9388 14.6665C59.6024 14.8763 59.2915 15.1244 59.0122 15.4058C58.9656 15.4521 58.9202 15.5044 58.8742 15.553V14.0846L56.8634 14.3803V24.336H58.8742V16.8883C59.0236 16.7838 59.1783 16.687 59.3375 16.5982C59.5348 16.4897 59.739 16.3942 59.9487 16.3123C60.1522 16.2335 60.3592 16.1645 60.5697 16.1053C60.786 16.0451 61.0069 16.0023 61.2301 15.9772C61.469 15.951 61.7097 15.9444 61.9497 15.9575L62.1862 14.1047C61.7821 14.0755 61.376 14.1121 60.9837 14.2131Z" fill="white"/>
<path d="M72.4771 13.8283L71.3731 14.9934C71.228 14.8853 71.0766 14.7859 70.9197 14.6958C70.0956 14.257 69.1717 14.0398 68.2385 14.0652C67.3002 14.0439 66.3726 14.2681 65.5475 14.7155C64.7859 15.1418 64.1631 15.7782 63.7535 16.5489C63.3082 17.4136 63.0879 18.3764 63.1128 19.3487C63.0875 20.3142 63.2973 21.2714 63.7239 22.1379C63.837 22.3525 63.967 22.5577 64.1126 22.7517L63.0142 23.9224L63.9211 24.75L64.9725 23.6138C65.1241 23.7271 65.283 23.8302 65.4483 23.9224C66.2529 24.3447 67.152 24.5549 68.0604 24.5332C69.0049 24.553 69.9385 24.329 70.7711 23.8826C71.5492 23.4528 72.1886 22.8101 72.6144 22.0298C73.0784 21.1569 73.3093 20.1789 73.2847 19.1906C73.3074 18.2494 73.0939 17.3174 72.6637 16.4799C72.5467 16.2654 72.4129 16.0605 72.2635 15.8671L73.403 14.6563L72.4771 13.8283ZM65.5968 17.2392C65.8179 16.7455 66.1863 16.3323 66.6515 16.0564C67.1423 15.784 67.6971 15.6479 68.2582 15.6621C68.7044 15.6519 69.1478 15.7358 69.5594 15.9085C69.781 16.0082 69.9856 16.1421 70.1656 16.3054L65.5791 21.259C65.3235 20.6141 65.202 19.9238 65.2222 19.2304C65.1988 18.5472 65.3268 17.8672 65.5968 17.2392ZM70.8014 21.3C70.5759 21.8098 70.2013 22.2394 69.7269 22.5322C69.2513 22.8076 68.7092 22.9475 68.1597 22.9367C67.6148 22.9494 67.0778 22.8057 66.6121 22.5227C66.4809 22.4382 66.3582 22.3413 66.2457 22.2332L70.8346 17.2787C70.9029 17.4357 70.9609 17.5971 71.0084 17.7617C71.1382 18.2401 71.2012 18.7343 71.1957 19.23C71.219 19.9411 71.0844 20.6486 70.8014 21.3014V21.3Z" fill="white"/>
<path d="M79.9287 14.2131C79.56 14.3118 79.2079 14.4646 78.8839 14.6665C78.5476 14.8764 78.2366 15.1245 77.9573 15.4058C77.9107 15.4521 77.8653 15.5044 77.8193 15.553V14.0846L75.8085 14.3803V24.336H77.8193V16.8883C77.9687 16.7838 78.1234 16.687 78.2826 16.5982C78.4799 16.4897 78.684 16.3942 78.8937 16.3123C79.0975 16.2335 79.3045 16.1645 79.5147 16.1053C79.7311 16.0452 79.952 16.0023 80.1752 15.9772C80.4141 15.951 80.6548 15.9444 80.8948 15.9575L81.1313 14.1047C80.7272 14.0755 80.3211 14.1121 79.9287 14.2131Z" fill="white"/>
<path d="M88.4851 22.6902C88.3928 22.7096 88.2909 22.7297 88.1792 22.749L87.8444 22.8082C87.7366 22.8274 87.6279 22.8405 87.5188 22.8476C87.4136 22.8545 87.3147 22.8575 87.223 22.8575C86.9209 22.8659 86.6209 22.8052 86.3458 22.68C86.1091 22.568 85.9129 22.3855 85.7839 22.1576C85.6458 21.9006 85.5778 21.6117 85.5868 21.3201V15.8589H88.3665L88.5836 14.2818H85.5868V11.1666L83.5759 11.8763V14.2818H82.0579L81.841 15.8589H83.5759V21.7338C83.5671 22.1256 83.6271 22.516 83.7533 22.887C83.8549 23.1806 84.0123 23.4518 84.2169 23.6855C84.4044 23.8937 84.6325 24.0615 84.8872 24.1783C85.1479 24.2981 85.4227 24.3842 85.705 24.4346C85.9847 24.4861 86.2684 24.5125 86.5527 24.5135C86.763 24.5135 86.9697 24.5069 87.1741 24.4941C87.3785 24.4813 87.5648 24.4612 87.7359 24.4346C87.9071 24.408 88.0675 24.3784 88.2186 24.3462C88.3698 24.314 88.4979 24.2838 88.603 24.2572L88.7216 22.6212C88.6448 22.6505 88.5657 22.6736 88.4851 22.6902Z" fill="white"/>
</svg>

<svg xmlns="http://www.w3.org/2000/svg" viewBox="0 0 89 35"><path fill="#000" d="M3.333 3.333h28v28h-28z"/><path fill="#FFE100" fill-rule="evenodd" d="M0 0h34.667v34.667H0V0Zm11.195 15.407H8v11.61h3.195v-11.61Zm4.052 0H11.66s2.038 3.343 2.061 3.384c.157.266.166.428.014.684l-2.075 3.397h3.588s1.73-2.826 1.967-3.218c.235-.393.224-.637-.01-1.04-.238-.406-.253-.43-1.658-2.72l-.299-.487Zm10.05 0s1.068 1.718 1.189 1.924c.234.404.245.648.009 1.042l-1.576 2.61c.258.422.603.974.906 1.46.31.497.577.924.66 1.066.235.404.245.649.01 1.042l-.25.42-.003.004-.003.004v.002c-.32.535-.84 1.41-1.224 2.036h-3.279l1.796-2.946-1.863-3.121 1.67-2.733h-4.045l-1.677-2.81h7.68Zm-6.2 5.962a366.91 366.91 0 0 0-1.509 2.476c-.225.389-.236.624-.009 1.004.159.262 1.01 1.655 1.518 2.484.508-.83 1.36-2.222 1.519-2.484.227-.38.216-.615-.01-1.004-.158-.27-1.003-1.651-1.509-2.476ZM8 7.156v6.531h2.143v-6.53H8Zm6.293 6.531L13.06 8.196a1.292 1.292 0 0 0-.446-.74 1.24 1.24 0 0 0-.824-.3h-1.315l1.472 6.531h2.346Zm.322-6.53v6.53h2.143v-6.53h-2.143Zm3.105 2.308c.199.117.426.177.657.175.23.003.456-.058.654-.175a1.306 1.306 0 0 0 .644-1.131 1.255 1.255 0 0 0-.175-.654 1.323 1.323 0 0 0-.47-.469 1.258 1.258 0 0 0-.653-.174 1.312 1.312 0 0 0-1.131.644 1.253 1.253 0 0 0-.175.653 1.297 1.297 0 0 0 .649 1.131Zm2.286-2.309v6.531h2.144v-6.53h-2.144ZM25 10.951a4.962 4.962 0 0 0-.138-.226.558.558 0 0 1-.11-.303.586.586 0 0 1 .092-.295l1.822-2.971H24.31a310.451 310.451 0 0 0-.781 1.283 96.347 96.347 0 0 1-.948 1.541.894.894 0 0 0-.147.442.952.952 0 0 0 .156.46c.037.055.103.162.198.322.095.159.208.344.34.556.132.212.266.43.4.653.135.224.262.433.382.626l.4.648h2.356a142.7 142.7 0 0 1-.46-.758 183.366 183.366 0 0 0-.87-1.426c-.138-.224-.25-.408-.336-.552Z" clip-rule="evenodd"/><path fill="#fff" d="M52.053 18.796a6.655 6.655 0 0 1-.207 1.745 3.187 3.187 0 0 1-.64 1.262 2.68 2.68 0 0 1-1.134.759 4.917 4.917 0 0 1-1.686.256 5.046 5.046 0 0 1-1.952-.345 2.47 2.47 0 0 1-1.261-1.163 4.768 4.768 0 0 1-.434-2.218v-8.753h-2.07v9.09a5.79 5.79 0 0 0 .444 2.385 4.066 4.066 0 0 0 1.222 1.587 5.07 5.07 0 0 0 1.804.878c.707.186 1.436.28 2.168.275a6.486 6.486 0 0 0 3.174-.69 4.33 4.33 0 0 0 1.844-1.932 6.633 6.633 0 0 0 .6-2.917V10.34h-1.872v8.456ZM60.984 14.213a3.857 3.857 0 0 0-1.045.454c-.337.21-.648.457-.927.739-.046.046-.092.098-.138.147v-1.468l-2.01.295v9.956h2.01v-7.448a5.177 5.177 0 0 1 1.075-.576c.203-.078.41-.147.62-.207a4.224 4.224 0 0 1 1.38-.148l.237-1.852c-.404-.03-.81.007-1.202.108ZM72.477 13.828l-1.104 1.165a4.56 4.56 0 0 0-.453-.297 5.393 5.393 0 0 0-2.681-.63 5.389 5.389 0 0 0-2.692.65 4.546 4.546 0 0 0-1.793 1.833 5.791 5.791 0 0 0-.641 2.8 5.961 5.961 0 0 0 .61 2.789c.114.214.244.42.39.614l-1.099 1.17.907.828 1.051-1.136c.152.113.311.216.476.308a5.346 5.346 0 0 0 2.612.611 5.493 5.493 0 0 0 2.711-.65 4.675 4.675 0 0 0 1.843-1.853c.464-.873.695-1.851.67-2.84a5.635 5.635 0 0 0-.62-2.71 4.625 4.625 0 0 0-.4-.613l1.139-1.21-.926-.829Zm-6.88 3.411a2.62 2.62 0 0 1 1.055-1.183 3.147 3.147 0 0 1 1.606-.394c.446-.01.89.074 1.301.246.222.1.427.234.607.397l-4.587 4.954a5.103 5.103 0 0 1-.357-2.029 4.64 4.64 0 0 1 .375-1.99ZM70.8 21.3c-.225.51-.6.94-1.074 1.232a3.01 3.01 0 0 1-1.567.405 2.852 2.852 0 0 1-1.548-.414 2.42 2.42 0 0 1-.366-.29l4.589-4.954c.068.157.126.318.173.483.13.478.193.972.188 1.468a4.812 4.812 0 0 1-.395 2.071V21.3ZM79.929 14.213c-.369.099-.721.252-1.045.454-.336.21-.647.457-.927.739-.046.046-.092.098-.138.147v-1.468l-2.01.295v9.956h2.01v-7.448a5.175 5.175 0 0 1 1.074-.576c.204-.078.412-.147.622-.207a4.239 4.239 0 0 1 1.38-.148l.236-1.852c-.404-.03-.81.007-1.202.108ZM88.485 22.69c-.092.02-.194.04-.306.059l-.335.06c-.107.018-.216.031-.325.039-.105.007-.204.01-.296.01a1.984 1.984 0 0 1-.877-.178 1.27 1.27 0 0 1-.562-.522 1.661 1.661 0 0 1-.197-.838V15.86h2.78l.217-1.577h-2.997v-3.115l-2.011.71v2.405h-1.518l-.217 1.577h1.735v5.875c-.009.392.051.782.177 1.153.102.294.26.565.464.799.187.208.415.375.67.492.26.12.536.206.818.257.28.051.563.078.848.079.21 0 .417-.007.621-.02.204-.013.39-.033.562-.06a8.787 8.787 0 0 0 .867-.177l.119-1.636c-.077.03-.156.053-.237.07Z"/></svg>
